X:6807
T:The Gallowglass
O:england
M:6/8
L:1/8
S:Ciaran Kelly, Moneymore, Derry (Accordian)
R:Jig
D:Session tape - Belfast
K:D
EF |: GFE BFA | GEE E2F | GFG Bcd | AFD DEF | GFE BFA | GBe B2A |\
GFE DEF | GEE E3:| efe B2A | GEE E2F | GFG Bcd | AFD D3 | efe B2A |\
GFE B2A | GFE DEF | GEE E3 | efe B2A | GEE E2F | GFG Bcd |\
AFD D3 | eBe dAd | BGB AFD | GFE DEF | GEE E3 ||
